public/img/logo.svg

<svg width="65" height="64" viewBox="0 0 65 64" fill="none" xmlns="http://www.w3.org/2000/svg">
<path fill-rule="evenodd" clip-rule="evenodd" d="M4.99588 28.428C6.75753 14.806 18.4589 4.26667 32.6503 4.26667C46.7113 4.26667 58.3324 14.6165 60.2546 28.0569C60.4214 29.2232 61.5021 30.0335 62.6684 29.8667C63.8348 29.6999 64.645 28.6192 64.4782 27.4529C62.2575 11.9246 48.8483 0 32.6503 0C14.9043 0 0.5 14.3168 0.5 32C0.5 40.0438 3.48457 47.3979 8.4066 53.0179C8.83266 53.5044 9.45639 53.7714 10.1025 53.7438C10.7486 53.7162 11.3473 53.397 11.7303 52.876L23.3598 37.0563L30.9782 40.0383C31.8101 40.364 32.7569 40.1367 33.3504 39.4689L45.7062 25.5658L59.6988 38.7658C56.6646 50.8065 45.7083 59.7333 32.6503 59.7333C27.1046 59.7333 21.9436 58.1253 17.6049 55.354C16.6119 54.7198 15.2928 55.0106 14.6586 56.0035C14.0244 56.9965 14.3152 58.3156 15.3081 58.9498C20.3133 62.1467 26.2679 64 32.6503 64C47.8999 64 60.675 53.4319 63.9738 39.24C64.0036 39.1116 64.0212 38.9832 64.0273 38.856C64.3493 38.0641 64.1738 37.1218 63.5146 36.5L47.0354 20.9542C46.6159 20.5584 46.0539 20.3493 45.4777 20.3747C44.9015 20.4001 44.3601 20.6577 43.9769 21.0888L36.8215 29.1402L21.2832 17.8136C20.5174 17.2553 19.475 17.2692 18.7243 17.8478L4.99588 28.428ZM4.83373 33.9397C5.1988 39.1995 7.03748 44.0542 9.94458 48.1016L20.8927 33.2088C21.465 32.4302 22.4893 32.1336 23.3891 32.4858L31.1488 35.5232L33.9739 32.3444L20.0622 22.2034L4.83373 33.9397Z" fill="#E1CE7A"/>
</svg>

<svg width="65" height="64" fill="none" xmlns="http://www.w3.org/2000/svg"><path fill-rule="evenodd" clip-rule="evenodd" d="M4.996 28.428C6.758 14.806 18.459 4.267 32.65 4.267c14.061 0 25.682 10.35 27.605 23.79a2.133 2.133 0 0 0 4.223-.604C62.258 11.925 48.848 0 32.65 0 14.904 0 .5 14.317.5 32c0 8.044 2.985 15.398 7.907 21.018a2.133 2.133 0 0 0 3.323-.142l11.63-15.82 7.618 2.982a2.133 2.133 0 0 0 2.372-.57l12.356-13.902 13.993 13.2c-3.034 12.04-13.99 20.967-27.049 20.967a27.852 27.852 0 0 1-15.045-4.379 2.133 2.133 0 0 0-2.297 3.596A32.12 32.12 0 0 0 32.65 64c15.25 0 28.025-10.568 31.324-24.76.03-.128.047-.257.053-.384a2.134 2.134 0 0 0-.512-2.356l-16.48-15.546a2.133 2.133 0 0 0-3.058.135l-7.155 8.051-15.539-11.326a2.133 2.133 0 0 0-2.559.034L4.996 28.428Zm-.162 5.512a27.48 27.48 0 0 0 5.11 14.162l10.949-14.893a2.133 2.133 0 0 1 2.496-.723l7.76 3.037 2.825-3.179-13.912-10.14L4.834 33.94Z" fill="#E1CE7A"/></svg>
